svgs/light/shuttle-space.svg

<svg xmlns="http://www.w3.org/2000/svg" viewBox="0 0 640 512"><!--! Font Awesome Pro 6.6.0 by @fontawesome - https://fontawesome.com License - https://fontawesome.com/license (Commercial License) Copyright 2024 Fonticons, Inc. --><path d="M245.2 448.1L405.3 352l58.7 0c64.7 0 123.5-27.4 164.8-76.3c9.6-11.4 9.6-28 0-39.4C587.5 187.4 528.7 160 464 160l-58.7 0L245.2 63.9C210.4 43 170.6 32 130 32L80 32C53.5 32 32 53.5 32 80l0 48c-17.7 0-32 14.3-32 32L0 352c0 17.7 14.3 32 32 32l0 48c0 26.5 21.5 48 48 48l50 0c40.6 0 80.4-11 115.2-31.9zM64 384l48 0c5.5 0 10.8-.6 16-1.6l0 65.6-48 0c-8.8 0-16-7.2-16-16l0-48zm164.7 36.6c-21.2 12.7-44.5 21.2-68.7 25l0-77.6c5.5-4.2 10.5-9 14.8-14.5c.6-.7 1.2-1.2 1.6-1.4c.2-.1 .3-.1 .3-.1l166.4 0L228.7 420.6zM64 352l-32 0 0-80 144 0c8.8 0 16-7.2 16-16s-7.2-16-16-16L32 240l0-80 32 0 48 0c15.3 0 28.9 7.1 37.7 18.3c5.8 7.3 15.2 13.7 27 13.7L464 192c54.9 0 104.4 22.9 139.5 64c-35.1 41.1-84.6 64-139.5 64l-287.3 0c-11.8 0-21.2 6.4-27 13.7C140.9 344.9 127.3 352 112 352l-48 0zm0-224l0-48c0-8.8 7.2-16 16-16l48 0 0 65.6c-5.2-1.1-10.5-1.6-16-1.6l-48 0zm110.8 30.5c-4.3-5.4-9.3-10.3-14.8-14.5l0-77.6c24.2 3.8 47.6 12.3 68.7 25L343.1 160l-166.4 0c0 0-.2 0-.3-.1c-.4-.2-1-.7-1.6-1.4zM464 224c-8.8 0-16 7.2-16 16l0 32c0 8.8 7.2 16 16 16s16-7.2 16-16l0-32c0-8.8-7.2-16-16-16z"/></svg>

<svg xmlns="http://www.w3.org/2000/svg" viewBox="0 0 640 512"><!--! Font Awesome Pro 6.4.2 by @fontawesome - https://fontawesome.com License - https://fontawesome.com/license (Commercial License) Copyright 2023 Fonticons, Inc. --><path d="M245.2 448.1L405.3 352H464c64.7 0 123.5-27.4 164.8-76.3c9.6-11.4 9.6-28 0-39.4C587.5 187.4 528.7 160 464 160H405.3L245.2 63.9C210.4 43 170.6 32 130 32H80C53.5 32 32 53.5 32 80v48c-17.7 0-32 14.3-32 32V352c0 17.7 14.3 32 32 32v48c0 26.5 21.5 48 48 48h50c40.6 0 80.4-11 115.2-31.9zM64 384h48c5.5 0 10.8-.6 16-1.6V448H80c-8.8 0-16-7.2-16-16V384zm164.7 36.6c-21.2 12.7-44.5 21.2-68.7 25V368c5.5-4.2 10.5-9 14.8-14.5c.6-.7 1.2-1.2 1.6-1.4c.2-.1 .3-.1 .3-.1H343.1L228.7 420.6zM64 352H32V272H176c8.8 0 16-7.2 16-16s-7.2-16-16-16H32V160H64h48c15.3 0 28.9 7.1 37.7 18.3c5.8 7.3 15.2 13.7 27 13.7H464c54.9 0 104.4 22.9 139.5 64c-35.1 41.1-84.6 64-139.5 64H176.7c-11.8 0-21.2 6.4-27 13.7C140.9 344.9 127.3 352 112 352H64zm0-224V80c0-8.8 7.2-16 16-16h48v65.6c-5.2-1.1-10.5-1.6-16-1.6H64zm110.8 30.5c-4.3-5.4-9.3-10.3-14.8-14.5V66.4c24.2 3.8 47.6 12.3 68.7 25L343.1 160H176.7c0 0-.2 0-.3-.1c-.4-.2-1-.7-1.6-1.4zM464 224c-8.8 0-16 7.2-16 16v32c0 8.8 7.2 16 16 16s16-7.2 16-16V240c0-8.8-7.2-16-16-16z"/></svg>
